site/static/learn/icons/pages.svg

<svg fill="none" height="26" viewBox="0 0 26 26" width="26" xmlns="http://www.w3.org/2000/svg"><g fill="#ff4949"><circle cx="13" cy="13" fill-opacity=".1" r="13"/><path d="m6 3h1v1h-1zm-2 0h1v1h-1zm-2 0h1v1h-1zm12 10h-12v-8h12zm0-9h-6v-1h6zm1-1c0-.55-.45-1-1-1h-12c-.55 0-1 .45-1 1v10c0 .55.45 1 1 1h12c.55 0 1-.45 1-1z" fill-rule="evenodd" transform="translate(5 5)"/></g></svg>

<svg width="26" height="26" viewBox="0 0 26 26" fill="none" xmlns="http://www.w3.org/2000/svg">
  <circle cx="13" cy="13" r="13" fill="#FF4949" fill-opacity="0.1"/>
  <path fill-rule="evenodd" d="M6 3h1v1H6V3zM4 3h1v1H4V3zM2 3h1v1H2V3zm12 10H2V5h12v8zm0-9H8V3h6v1zm1-1c0-.55-.45-1-1-1H2c-.55 0-1 .45-1 1v10c0 .55.45 1 1 1h12c.55 0 1-.45 1-1V3z" fill="#FF4949" transform="translate(5, 5)"></path>
</svg>
